Adwaita/symbolic/status/network-vpn-no-route-symbolic.svg

<?xml version="1.0" encoding="UTF-8"?>
<svg height="16px" viewBox="0 0 16 16" width="16px" xmlns="http://www.w3.org/2000/svg">
    <path d="m 8 1 c -0.519531 0 -1.035156 0.132812 -1.5 0.402344 c -0.925781 0.535156 -1.5 1.527344 -1.5 2.597656 v 0.363281 c 0.394531 -0.453125 0.894531 -0.820312 1.46875 -1.058593 c 0.414062 -0.171876 0.84375 -0.242188 1.269531 -0.269532 c 0.085938 -0.023437 0.175781 -0.035156 0.261719 -0.035156 c 0.035156 0 0.070312 0.011719 0.105469 0.011719 c 0.03125 0.003906 0.066406 -0.007813 0.097656 -0.003907 c 0.96875 0.050782 1.910156 0.449219 2.625 1.164063 c 0.0625 0.0625 0.113281 0.132813 0.171875 0.199219 v -0.371094 c 0 -1.070312 -0.574219 -2.0625 -1.5 -2.597656 c -0.464844 -0.269532 -0.980469 -0.402344 -1.5 -0.402344 z m -4 4 v 2 c 0 -0.71875 0.203125 -1.402344 0.550781 -2 z m 7.453125 0 c 0.613281 1.0625 0.726563 2.367188 0.242187 3.53125 c -0.335937 0.816406 -0.972656 1.398438 -1.695312 1.824219 v 0.644531 h 2 v -6 z m -3.351563 0.003906 c -0.292968 -0.015625 -0.589843 0.035156 -0.867187 0.148438 c 0.316406 -0.132813 0.65625 -0.132813 0.984375 -0.09375 c -0.042969 -0.007813 -0.074219 -0.050782 -0.117188 -0.054688 z m -1.402343 0.5 c -0.15625 0.144532 -0.285157 0.3125 -0.394531 0.496094 h 0.003906 c 0.105468 -0.183594 0.238281 -0.351562 0.390625 -0.496094 z m 3.066406 0.558594 c 0.273437 0.519531 0.3125 1.148438 0.082031 1.703125 c 0.230469 -0.558594 0.191406 -1.183594 -0.082031 -1.703125 z m -5.765625 1.9375 v 3 h 2 v -2 c 0 -0.386719 0.222656 -0.691406 0.417969 -1 z m 4.792969 0.757812 c -0.253907 0.113282 -0.507813 0.242188 -0.792969 0.242188 v 0.113281 l 0.664062 -0.234375 c 0.058594 -0.019531 0.074219 -0.097656 0.128907 -0.121094 z m -6.792969 4.242188 v 2 h 6 c -1.09375 0 -2 -0.90625 -2 -2 z m 6 2 h 6 v -2 h -4 c 0 1.09375 -0.90625 2 -2 2 z m 0 0" fill="#2e3434" fill-opacity="0.34902"/>
    <path d="m 8.152344 4.007812 c -0.4375 -0.023437 -0.882813 0.046876 -1.300782 0.222657 c -1.117187 0.460937 -1.851562 1.558593 -1.851562 2.769531 h 2 c 0 -0.40625 0.242188 -0.769531 0.617188 -0.921875 c 0.375 -0.15625 0.800781 -0.074219 1.089843 0.214844 c 0.289063 0.289062 0.371094 0.714843 0.21875 1.089843 c -0.15625 0.375 -0.519531 0.617188 -0.925781 0.617188 c -0.550781 0 -1 0.449219 -1 1 v 2 h 2 v -1.179688 c 0.785156 -0.28125 1.441406 -0.875 1.769531 -1.671874 c 0.464844 -1.117188 0.207031 -2.414063 -0.648437 -3.269532 c -0.535156 -0.535156 -1.242188 -0.835937 -1.96875 -0.871094 z m -0.152344 7.992188 c -0.550781 0 -1 0.449219 -1 1 s 0.449219 1 1 1 s 1 -0.449219 1 -1 s -0.449219 -1 -1 -1 z m 0 0" fill="#2e3436"/>
</svg>

<?xml version="1.0" encoding="UTF-8"?>
<svg xmlns="http://www.w3.org/2000/svg" xmlns:xlink="http://www.w3.org/1999/xlink" width="16px" height="16px" viewBox="0 0 16 16" version="1.1">
<g id="surface110257">
<path style=" stroke:none;fill-rule:nonzero;fill:rgb(18.039216%,20.392157%,21.176471%);fill-opacity:0.34902;" d="M 7.917969 1 C 6.300781 1 5 2.300781 5 3.917969 L 5 4.359375 C 5.394531 3.910156 5.894531 3.546875 6.46875 3.308594 C 6.929688 3.117188 7.410156 3.019531 7.886719 3.007812 C 7.925781 3.003906 7.960938 3 8 3 C 8.039062 3 8.074219 3.003906 8.113281 3.007812 C 8.140625 3.007812 8.171875 3.007812 8.203125 3.011719 C 9.171875 3.058594 10.113281 3.460938 10.824219 4.171875 C 10.886719 4.234375 10.945312 4.296875 11 4.359375 L 11 3.917969 C 11 2.300781 9.699219 1 8.082031 1 Z M 11.550781 5.175781 C 12.078125 6.203125 12.148438 7.429688 11.695312 8.53125 C 11.355469 9.34375 10.722656 9.925781 10 10.355469 L 10 11 L 10.96875 11 C 11.539062 11 12 10.539062 12 9.96875 L 12 6.03125 C 12.003906 5.6875 11.835938 5.367188 11.550781 5.175781 Z M 4.441406 5.1875 C 4.164062 5.375 3.996094 5.695312 4 6.03125 L 4 9.96875 C 4 10.539062 4.460938 11 5.03125 11 L 6 11 L 6 9 C 6 8.625 6.234375 8.308594 6.4375 8 L 5 8 C 4.449219 7.996094 4.003906 7.550781 4 7 C 4 6.355469 4.160156 5.738281 4.441406 5.1875 Z M 8 7 C 7.996094 7.003906 7.996094 7.003906 7.992188 7.003906 C 7.996094 7.003906 8 7 8 7 Z M 2.996094 12.976562 C 2.445312 12.976562 1.996094 13.425781 1.996094 13.976562 C 1.996094 14.527344 2.445312 14.976562 2.996094 14.976562 L 6.28125 14.976562 C 6.644531 15.578125 7.292969 15.949219 7.996094 15.949219 C 8.699219 15.949219 9.351562 15.578125 9.714844 14.976562 L 13.007812 14.976562 C 13.558594 14.976562 14.007812 14.527344 14.007812 13.976562 C 14.007812 13.425781 13.558594 12.976562 13.007812 12.976562 L 9.996094 12.976562 C 9.996094 12.984375 10 12.992188 10 13 C 10 14.046875 9.046875 15 8 15 C 6.953125 15 6 14.046875 6 13 C 6 12.992188 6.003906 12.984375 6.003906 12.976562 Z M 2.996094 12.976562 "/>
<path style=" stroke:none;fill-rule:nonzero;fill:rgb(18.039216%,20.392157%,21.176471%);fill-opacity:1;" d="M 8.152344 4.007812 C 7.714844 3.984375 7.269531 4.054688 6.851562 4.230469 C 5.734375 4.691406 5 5.789062 5 7 L 7 7 C 7 6.59375 7.242188 6.230469 7.617188 6.078125 C 7.992188 5.921875 8.417969 6.003906 8.707031 6.292969 C 8.996094 6.582031 9.078125 7.007812 8.925781 7.382812 C 8.769531 7.757812 8.40625 8 8 8 C 7.449219 8 7 8.449219 7 9 L 7 11 L 9 11 L 9 9.820312 C 9.785156 9.539062 10.441406 8.945312 10.769531 8.148438 C 11.234375 7.03125 10.976562 5.734375 10.121094 4.878906 C 9.585938 4.34375 8.878906 4.042969 8.152344 4.007812 Z M 8 12 C 7.449219 12 7 12.449219 7 13 C 7 13.550781 7.449219 14 8 14 C 8.550781 14 9 13.550781 9 13 C 9 12.449219 8.550781 12 8 12 Z M 8 12 "/>
</g>
</svg>
